evolvere-2-blue-mono/apps/16/vivaldi.svg

<?xml version="1.0" encoding="UTF-8" standalone="no"?>
<!-- Created with Inkscape (http://www.inkscape.org/) -->

<svg
   xmlns:dc="http://purl.org/dc/elements/1.1/"
   xmlns:cc="http://creativecommons.org/ns#"
   xmlns:rdf="http://www.w3.org/1999/02/22-rdf-syntax-ns#"
   xmlns:svg="http://www.w3.org/2000/svg"
   xmlns="http://www.w3.org/2000/svg"
   xmlns:sodipodi="http://sodipodi.sourceforge.net/DTD/sodipodi-0.dtd"
   xmlns:inkscape="http://www.inkscape.org/namespaces/inkscape"
   version="1.1"
   width="16"
   height="16"
   id="svg2"
   inkscape:version="0.48.4 r9939"
   sodipodi:docname="vivaldi.svg">
  <sodipodi:namedview
     pagecolor="#ffffff"
     bordercolor="#666666"
     borderopacity="1"
     objecttolerance="10"
     gridtolerance="10"
     guidetolerance="10"
     inkscape:pageopacity="0"
     inkscape:pageshadow="2"
     inkscape:window-width="1920"
     inkscape:window-height="1025"
     id="namedview6"
     showgrid="true"
     inkscape:zoom="29.5"
     inkscape:cx="14.016544"
     inkscape:cy="7.5699553"
     inkscape:window-x="-2"
     inkscape:window-y="32"
     inkscape:window-maximized="1"
     inkscape:current-layer="svg2"
     inkscape:snap-global="true"
     inkscape:snap-bbox="true"
     inkscape:bbox-paths="true"
     inkscape:bbox-nodes="true"
     inkscape:snap-bbox-edge-midpoints="true"
     inkscape:snap-bbox-midpoints="true"
     inkscape:object-paths="true"
     inkscape:snap-intersection-paths="true"
     inkscape:object-nodes="true"
     inkscape:snap-smooth-nodes="true"
     inkscape:snap-midpoints="true"
     inkscape:snap-object-midpoints="true"
     inkscape:snap-center="true">
    <inkscape:grid
       type="xygrid"
       id="grid2982" />
  </sodipodi:namedview>
  <defs
     id="defs4" />
  <metadata
     id="metadata7">
    <rdf:RDF>
      <cc:Work
         rdf:about="">
        <dc:format>image/svg+xml</dc:format>
        <dc:type
           rdf:resource="http://purl.org/dc/dcmitype/StillImage" />
        <dc:title />
      </cc:Work>
    </rdf:RDF>
  </metadata>
  <path
     sodipodi:nodetypes="ccsscscccccsscsccscsscccccsccccssssscccc"
     inkscape:connector-curvature="0"
     id="path3019"
     d="M 2.7953217,2.0001848 C 1.5240429,1.9833689 0.62135376,3.2571586 1.1576853,4.3444249 c 0.028714,0.058218 1.567216,2.6257149 1.7728917,2.9585692 0.026628,0.043094 0.064139,0.1065985 0.083234,0.1415141 0.019096,0.034917 0.052875,0.092051 0.075604,0.126966 0.057354,0.088108 0.060144,0.092471 0.8802038,1.4475435 0.4028542,0.6656789 0.7543874,1.2457573 0.7810155,1.2888353 0.026628,0.04308 0.064161,0.106599 0.083234,0.141515 0.019076,0.03491 0.059363,0.101573 0.090171,0.148127 0.030808,0.04656 0.06645,0.103688 0.079072,0.126966 0.012627,0.02327 0.045295,0.0773 0.072136,0.120352 0.02684,0.04304 0.188387,0.308027 0.359295,0.588542 0.1709082,0.280513 0.3322794,0.54549 0.3586011,0.588539 0.026323,0.04305 0.062305,0.101837 0.079767,0.130934 0.017459,0.0291 0.054831,0.09099 0.083234,0.137546 0.028399,0.04655 0.065773,0.10845 0.083234,0.137546 0.017459,0.0291 0.053444,0.08787 0.079766,0.130934 0.026323,0.04305 0.1220182,0.200184 0.2129412,0.349157 0.561068,0.91926 1.0593079,1.186675 1.9844456,1.064 0.3318277,-0.04401 0.6536194,-0.203414 0.9148841,-0.452977 0.1835977,-0.175376 0.2745339,-0.303823 0.5992874,-0.843795 0.096756,-0.160878 0.1919193,-0.317997 0.2115543,-0.349156 0.01964,-0.03117 0.05709,-0.09258 0.08323,-0.136224 0.02614,-0.04364 0.06931,-0.115063 0.09572,-0.158706 0.02641,-0.04365 0.06231,-0.10316 0.07977,-0.132257 0.01747,-0.0291 0.05345,-0.08834 0.07976,-0.131595 0.02633,-0.04326 0.437396,-0.721823 0.913496,-1.507721 0.4761,-0.7858965 0.885613,-1.4614797 0.910029,-1.5017678 0.969794,-1.600283 1.695654,-2.8002877 1.726419,-2.8534262 0.02177,-0.037609 0.06173,-0.1037425 0.08878,-0.1474655 C 14.231808,5.4137589 14.763789,4.5300864 14.810882,4.442294 15.213867,3.6910586 14.952417,2.7358665 14.220612,2.2845351 12.717809,1.3577016 10.394997,2.933058 11.151653,4.4798169 12.080618,6.3788086 10.506612,8.0289849 9.0160684,8.0287669 7.8007861,8.0285891 7.3387013,7.8560403 6.5887267,6.6185687 6.5643115,6.5782832 6.2003349,5.9762969 5.7799662,5.280798 4.9030133,3.829881 4.6526655,3.4168622 4.5931831,3.3220849 4.5699306,3.2850333 4.5395414,3.2355894 4.5259017,3.2123121 4.0082928,2.3289343 3.6047391,2.0360976 2.8563607,2.0021685 c -0.02036,-9.158e-4 -0.04086,-0.00171 -0.061039,-0.00198 z"
     style="color:#000000;fill:#27303a;fill-opacity:0.753280819999999968;fill-rule:nonzero;stroke:none;stroke-width:1;marker:none;visibility:visible;display:inline;overflow:visible;enable-background:accumulate" />
  <path
     style="font-size:medium;font-style:normal;font-variant:normal;font-weight:normal;font-stretch:normal;text-indent:0;text-align:start;text-decoration:none;line-height:normal;letter-spacing:normal;word-spacing:normal;text-transform:none;direction:ltr;block-progression:tb;writing-mode:lr-tb;text-anchor:start;baseline-shift:baseline;color:#000000;fill:#f1f3f5;fill-opacity:0.90288714000000003;fill-rule:nonzero;stroke:none;stroke-width:2;marker:none;visibility:visible;display:inline;overflow:visible;enable-background:accumulate;font-family:Sans;-inkscape-font-specification:Sans"
     d="M 2.8125 0.90625 C 1.4584264 0.88833892 0.32817093 1.8437831 0 3.03125 L 0 4.5 C 0.037820955 4.61625 0.099765297 4.7292426 0.15625 4.84375 C 0.2342811 5.0019591 0.2039035 4.912075 0.21875 4.9375 C 0.2335965 4.962925 0.2580561 4.992048 0.28125 5.03125 C 0.3276377 5.109654 0.39265945 5.2161219 0.46875 5.34375 C 0.62093111 5.5990063 0.82397695 5.935352 1.03125 6.28125 C 1.4457961 6.9730461 1.8770505 7.6760252 2 7.875 C 2.015437 7.899983 2.064979 7.973282 2.0625 7.96875 C 2.101242 8.03959 2.106044 8.0791256 2.15625 8.15625 C 2.213444 8.244112 2.211221 8.238728 3.03125 9.59375 C 3.4343056 10.259762 3.7403137 10.75822 3.8125 10.875 C 3.827935 10.89997 3.877915 10.97409 3.875 10.96875 C 3.924018 11.05846 3.946046 11.13722 4 11.21875 C 4.017759 11.24559 4.07277 11.326573 4.03125 11.25 C 4.082771 11.34495 4.122807 11.383859 4.15625 11.4375 C 4.15907 11.442 4.3291909 11.719647 4.5 12 C 4.6708374 12.280397 4.8132549 12.543875 4.84375 12.59375 C 4.87031 12.63719 4.926733 12.700808 4.9375 12.71875 C 4.957248 12.75167 5.000539 12.824661 5.03125 12.875 C 5.057319 12.91773 5.078451 12.97451 5.09375 13 C 5.118121 13.04062 5.161586 13.0826 5.1875 13.125 C 5.211335 13.16398 5.314937 13.319138 5.40625 13.46875 C 5.7375071 14.011485 6.0957978 14.511941 6.65625 14.8125 C 7.2167022 15.113059 7.8774205 15.140911 8.46875 15.0625 C 9.0518782 14.98516 9.5816877 14.712077 10 14.3125 C 10.246399 14.077135 10.449462 13.801668 10.78125 13.25 C 10.87685 13.091038 10.983656 12.882595 10.96875 12.90625 C 10.99956 12.85736 11.03211 12.800745 11.0625 12.75 C 11.08617 12.71048 11.13016 12.636859 11.15625 12.59375 C 11.18333 12.54899 11.23072 12.50087 11.25 12.46875 C 11.26351 12.44625 11.28653 12.38645 11.3125 12.34375 C 11.3513 12.28001 11.773904 11.629642 12.25 10.84375 C 12.726015 10.057994 13.131241 9.3537662 13.15625 9.3125 C 13.641265 8.5121636 14.068258 7.8195216 14.375 7.3125 C 14.681742 6.8054784 14.779071 6.6344429 14.875 6.46875 C 14.8845 6.452358 14.94779 6.377626 14.96875 6.34375 C 15.080954 6.1624242 15.23937 5.8397037 15.40625 5.5625 C 15.57313 5.2852963 15.668833 5.1783211 15.78125 4.96875 C 15.866285 4.8102299 15.948949 4.6354201 16 4.46875 L 16 2.96875 C 15.825575 2.3152561 15.42369 1.720694 14.8125 1.34375 C 13.608571 0.60124289 12.196146 0.87897535 11.21875 1.5625 C 10.730052 1.9042623 10.292818 2.3696905 10.0625 2.96875 C 9.8321821 3.5678095 9.8370776 4.3162966 10.15625 4.96875 C 10.457704 5.5849834 10.352537 5.9498003 10.09375 6.3125 C 9.8349628 6.6751997 9.3705296 6.9375496 9.03125 6.9375 C 8.4756487 6.9374187 8.2619419 6.8703951 8.15625 6.8125 C 8.0505581 6.7546049 7.8660822 6.6149792 7.53125 6.0625 C 7.5127675 6.0320036 7.1390675 5.4141642 6.71875 4.71875 C 5.8416604 3.2676068 5.616887 2.8864511 5.53125 2.75 C 5.5128309 2.7206501 5.4655919 2.6508604 5.46875 2.65625 C 5.17371 2.1527196 4.8875039 1.7324999 4.4375 1.40625 C 3.9874961 1.0800001 3.4145364 0.92929409 2.90625 0.90625 C 2.881297 0.905128 2.851568 0.90677274 2.8125 0.90625 z M 2.78125 2 C 2.801429 2.00027 2.82339 1.9990842 2.84375 2 C 3.5921284 2.0339291 4.0136411 2.3353722 4.53125 3.21875 C 4.5448897 3.2420273 4.5704975 3.2754484 4.59375 3.3125 C 4.6532324 3.4072773 4.9042971 3.830333 5.78125 5.28125 C 6.2016187 5.9767489 6.5693348 6.5847145 6.59375 6.625 C 7.3437246 7.8624716 7.8159677 8.0310722 9.03125 8.03125 C 10.521794 8.031468 12.085215 6.3677417 11.15625 4.46875 C 10.399594 2.9219911 12.715947 1.3544165 14.21875 2.28125 C 14.950555 2.7325814 15.215485 3.6862646 14.8125 4.4375 C 14.765407 4.5252924 14.243597 5.4068384 14.03125 5.75 C 14.0042 5.793723 13.95927 5.868641 13.9375 5.90625 C 13.906735 5.9593885 13.188544 7.149717 12.21875 8.75 C 12.194334 8.7902881 11.75735 9.4641035 11.28125 10.25 C 10.80515 11.035898 10.40133 11.73799 10.375 11.78125 C 10.34869 11.824505 10.32997 11.87715 10.3125 11.90625 C 10.29504 11.935347 10.24516 11.9876 10.21875 12.03125 C 10.19234 12.074893 10.15114 12.14386 10.125 12.1875 C 10.09886 12.231144 10.05089 12.28133 10.03125 12.3125 C 10.011615 12.343659 9.940506 12.526622 9.84375 12.6875 C 9.5189965 13.227472 9.4023477 13.355874 9.21875 13.53125 C 8.9574853 13.780813 8.6443277 13.92474 8.3125 13.96875 C 7.3873623 14.091425 6.904818 13.82551 6.34375 12.90625 C 6.252827 12.757277 6.151323 12.60555 6.125 12.5625 C 6.098678 12.519436 6.048709 12.4666 6.03125 12.4375 C 6.013789 12.408404 5.997149 12.3278 5.96875 12.28125 C 5.940347 12.234694 5.892459 12.18535 5.875 12.15625 C 5.857538 12.127153 5.807573 12.0743 5.78125 12.03125 C 5.7549283 11.988201 5.6084082 11.718013 5.4375 11.4375 C 5.266592 11.156985 5.08934 10.88679 5.0625 10.84375 C 5.035659 10.800698 5.012627 10.74202 5 10.71875 C 4.987378 10.695472 4.968308 10.64031 4.9375 10.59375 C 4.906692 10.547196 4.862826 10.47241 4.84375 10.4375 C 4.824677 10.402584 4.776628 10.35558 4.75 10.3125 C 4.7233719 10.269422 4.3716042 9.6969289 3.96875 9.03125 C 3.1486902 7.6761775 3.151104 7.650608 3.09375 7.5625 C 3.071021 7.527585 3.019096 7.472417 3 7.4375 C 2.980905 7.4025844 2.964128 7.355594 2.9375 7.3125 C 2.7318243 6.9796457 1.184964 4.401968 1.15625 4.34375 C 0.61991846 3.2564837 1.5099712 1.9831841 2.78125 2 z "
     id="path3859" />
</svg>

<?xml version="1.0" encoding="UTF-8"?>
<!-- Created with Inkscape (http://www.inkscape.org/) -->
<svg width="16" height="16" version="1.1" xmlns="http://www.w3.org/2000/svg" xmlns:cc="http://creativecommons.org/ns#" xmlns:dc="http://purl.org/dc/elements/1.1/" xmlns:rdf="http://www.w3.org/1999/02/22-rdf-syntax-ns#">
	<metadata>
		<rdf:RDF>
			<cc:Work rdf:about="">
				<dc:format>image/svg+xml</dc:format>
				<dc:type rdf:resource="http://purl.org/dc/dcmitype/StillImage"/>
			</cc:Work>
		</rdf:RDF>
	</metadata>
	<defs>
		<style id="current-color-scheme" type="text/css">.ColorScheme-Background{color:#ffffff;}
			.ColorScheme-Text{color:#090d11;}</style>
	</defs>
	<path class="ColorScheme-Text" d="m2.7953 2.0002c-1.2713-0.016816-2.174 1.257-1.6376 2.3442 0.028714 0.058218 1.5672 2.6257 1.7729 2.9586 0.026628 0.043094 0.064139 0.1066 0.083234 0.14151 0.019096 0.034917 0.052875 0.092051 0.075604 0.12697 0.057354 0.088108 0.060144 0.092471 0.8802 1.4475 0.40285 0.66568 0.75439 1.2458 0.78102 1.2888 0.026628 0.04308 0.064161 0.1066 0.083234 0.14152 0.019076 0.03491 0.059363 0.10157 0.090171 0.14813s0.06645 0.10369 0.079072 0.12697c0.012627 0.02327 0.045295 0.0773 0.072136 0.12035 0.02684 0.04304 0.18839 0.30803 0.3593 0.58854s0.33228 0.54549 0.3586 0.58854c0.026323 0.04305 0.062305 0.10184 0.079767 0.13093 0.017459 0.0291 0.054831 0.09099 0.083234 0.13755 0.028399 0.04655 0.065773 0.10845 0.083234 0.13755 0.017459 0.0291 0.053444 0.08787 0.079766 0.13093 0.026323 0.04305 0.12202 0.20018 0.21294 0.34916 0.56107 0.91926 1.0593 1.1867 1.9844 1.064 0.33183-0.04401 0.65362-0.20341 0.91488-0.45298 0.1836-0.17538 0.27453-0.30382 0.59929-0.8438 0.096756-0.16088 0.19192-0.318 0.21155-0.34916 0.01964-0.03117 0.05709-0.09258 0.08323-0.13622s0.06931-0.11506 0.09572-0.15871 0.06231-0.10316 0.07977-0.13226c0.01747-0.0291 0.05345-0.08834 0.07976-0.1316 0.02633-0.04326 0.4374-0.72182 0.9135-1.5077 0.4761-0.7859 0.88561-1.4615 0.91003-1.5018 0.96979-1.6003 1.6957-2.8003 1.7264-2.8534 0.02177-0.037609 0.06173-0.10374 0.08878-0.14747 0.21235-0.34316 0.74433-1.2268 0.79142-1.3146 0.40298-0.75124 0.14154-1.7064-0.59027-2.1578-1.5028-0.92683-3.8256 0.64852-3.069 2.1953 0.92896 1.899-0.64504 3.5492-2.1356 3.549-1.2153-1.778e-4 -1.6774-0.17273-2.4273-1.4102-0.024415-0.040286-0.38839-0.64227-0.80876-1.3378-0.87695-1.4509-1.1273-1.8639-1.1868-1.9587-0.023252-0.037052-0.053642-0.086496-0.067281-0.10977-0.51761-0.88338-0.92116-1.1762-1.6695-1.2101-0.02036-9.158e-4 -0.04086-0.00171-0.061039-0.00198z" style="fill-opacity:.75;fill:currentColor"/>
	<path class="ColorScheme-Background" d="m2.8125 0.90625c-1.3541-0.017911-2.4843 0.93753-2.8125 2.125v1.4688c0.037821 0.11625 0.099765 0.22924 0.15625 0.34375 0.078031 0.15821 0.047654 0.068325 0.0625 0.09375s0.039306 0.054548 0.0625 0.09375c0.046388 0.078404 0.11141 0.18487 0.1875 0.3125 0.15218 0.25526 0.35523 0.5916 0.5625 0.9375 0.41455 0.6918 0.8458 1.3948 0.96875 1.5938 0.015437 0.024983 0.064979 0.098282 0.0625 0.09375 0.038742 0.07084 0.043544 0.11038 0.09375 0.1875 0.057194 0.087862 0.054971 0.082478 0.875 1.4375 0.40306 0.66601 0.70906 1.1645 0.78125 1.2812 0.015435 0.02497 0.065415 0.09909 0.0625 0.09375 0.049018 0.08971 0.071046 0.16847 0.125 0.25 0.017759 0.02684 0.07277 0.10782 0.03125 0.03125 0.051521 0.09495 0.091557 0.13386 0.125 0.1875 0.00282 0.0045 0.17294 0.28215 0.34375 0.5625 0.17084 0.2804 0.31325 0.54388 0.34375 0.59375 0.02656 0.04344 0.082983 0.10706 0.09375 0.125 0.019748 0.03292 0.063039 0.10591 0.09375 0.15625 0.026069 0.04273 0.047201 0.09951 0.0625 0.125 0.024371 0.04062 0.067836 0.0826 0.09375 0.125 0.023835 0.03898 0.12744 0.19414 0.21875 0.34375 0.33126 0.54274 0.68955 1.0432 1.25 1.3438s1.2212 0.32841 1.8125 0.25c0.58313-0.07734 1.1129-0.35042 1.5312-0.75 0.2464-0.23536 0.44946-0.51083 0.78125-1.0625 0.0956-0.15896 0.20241-0.3674 0.1875-0.34375 0.03081-0.04889 0.06336-0.1055 0.09375-0.15625 0.02367-0.03952 0.06766-0.11314 0.09375-0.15625 0.02708-0.04476 0.07447-0.09288 0.09375-0.125 0.01351-0.0225 0.03653-0.0823 0.0625-0.125 0.0388-0.06374 0.4614-0.71411 0.9375-1.5 0.47602-0.78576 0.88124-1.49 0.90625-1.5312 0.48502-0.80034 0.91201-1.493 1.2188-2s0.40407-0.67806 0.5-0.84375c0.0095-0.016392 0.07279-0.091124 0.09375-0.125 0.1122-0.18133 0.27062-0.50405 0.4375-0.78125s0.26258-0.38418 0.375-0.59375c0.085035-0.15852 0.1677-0.33333 0.21875-0.5v-1.5c-0.17442-0.65349-0.57631-1.2481-1.1875-1.625-1.2039-0.74251-2.6164-0.46477-3.5938 0.21875-0.4887 0.34176-0.92593 0.80719-1.1562 1.4062-0.23032 0.59906-0.22542 1.3475 0.09375 2 0.30145 0.61623 0.19629 0.98105-0.0625 1.3438-0.25879 0.3627-0.72322 0.62505-1.0625 0.625-0.5556-8.13e-5 -0.76931-0.067105-0.875-0.125s-0.29017-0.19752-0.625-0.75c-0.018482-0.030496-0.39218-0.64834-0.8125-1.3438-0.87709-1.4511-1.1019-1.8323-1.1875-1.9688-0.018419-0.02935-0.065658-0.09914-0.0625-0.09375-0.29504-0.50353-0.58125-0.92375-1.0312-1.25s-1.023-0.47696-1.5312-0.5c-0.024953-0.001122-0.054682 5.2274e-4 -0.09375 0zm-0.03125 1.0938c0.020179 2.7e-4 0.04214-9.158e-4 0.0625 0 0.74838 0.033929 1.1699 0.33537 1.6875 1.2188 0.01364 0.023277 0.039248 0.056698 0.0625 0.09375 0.059482 0.094777 0.31055 0.51783 1.1875 1.9688 0.42037 0.6955 0.78808 1.3035 0.8125 1.3438 0.74997 1.2375 1.2222 1.4061 2.4375 1.4062 1.4905 2.18e-4 3.054-1.6635 2.125-3.5625-0.75666-1.5468 1.5597-3.1143 3.0625-2.1875 0.7318 0.45133 0.99674 1.405 0.59375 2.1562-0.047093 0.087792-0.5689 0.96934-0.78125 1.3125-0.02705 0.043723-0.07198 0.11864-0.09375 0.15625-0.030765 0.053138-0.74896 1.2435-1.7188 2.8438-0.024416 0.040288-0.4614 0.7141-0.9375 1.5s-0.87992 1.488-0.90625 1.5312c-0.02631 0.043255-0.04503 0.0959-0.0625 0.125-0.01746 0.029097-0.06734 0.08135-0.09375 0.125-0.02641 0.043643-0.06761 0.11261-0.09375 0.15625-0.02614 0.043644-0.07411 0.09383-0.09375 0.125-0.019635 0.031159-0.090744 0.21412-0.1875 0.375-0.32475 0.53997-0.4414 0.66837-0.625 0.84375-0.26126 0.24956-0.57442 0.39349-0.90625 0.4375-0.92514 0.12268-1.4077-0.14324-1.9688-1.0625-0.090923-0.14897-0.19243-0.3007-0.21875-0.34375-0.026322-0.043064-0.076291-0.0959-0.09375-0.125-0.017461-0.029096-0.034101-0.1097-0.0625-0.15625-0.028403-0.046556-0.076291-0.0959-0.09375-0.125-0.017462-0.029097-0.067427-0.08195-0.09375-0.125-0.026322-0.043049-0.17284-0.31324-0.34375-0.59375-0.17091-0.28052-0.34816-0.55071-0.375-0.59375-0.026841-0.043052-0.049873-0.10173-0.0625-0.125-0.012622-0.023278-0.031692-0.07844-0.0625-0.125-0.030808-0.046554-0.074674-0.12134-0.09375-0.15625-0.019073-0.034916-0.067122-0.08192-0.09375-0.125-0.026628-0.043078-0.3784-0.61557-0.78125-1.2812-0.82006-1.3551-0.81765-1.3806-0.875-1.4688-0.022729-0.034915-0.074654-0.090083-0.09375-0.125-0.019095-0.034916-0.035872-0.081906-0.0625-0.125-0.20568-0.33285-1.7525-2.9105-1.7812-2.9688-0.53633-1.0873 0.35372-2.3606 1.625-2.3438z" style="fill-opacity:.5;fill:currentColor"/>
</svg>
